X: 1
T: Maurice Manly's Polka
R: polka
O: Ireland
B:
D:
Z: John Chambers <jc:trillian.mit.edu>
N:
M: 2/4
L: 1/8
K: ADor
|: "Am"EA A>{GA}B | cd eg | "G"EG G>{AG}F | GE ED | "Am"EA A>{GA}B | cd ef | "G"g>{ag}e dB | "Am"BA A2 :|
|: "Am"ea a>{ga}b | ag ef | "G"g>{ag}f ga | ge ed | "Am"ea a>{ga}b | ag ef | "G"g>{ag}e dB | "Am"BA A2 :|

